src/pos-icons/cloud-upload-outline.svg

<svg height="24" viewBox="0 0 24 24" width="24" xmlns="http://www.w3.org/2000/svg"><path d="m19.35 10.04c-.68-3.45-3.71-6.04-7.35-6.04-2.89 0-5.4 1.64-6.65 4.04-3.01.32-5.35 2.87-5.35 5.96a6 6 0 0 0 6 6h13a5 5 0 0 0 5-5c0-2.64-2.05-4.78-4.65-4.96m-.35 7.96h-13a4 4 0 0 1 -4-4c0-2.05 1.53-3.76 3.56-3.97l1.07-.11.5-.95c.95-1.83 2.81-2.97 4.87-2.97 2.62 0 4.88 1.86 5.39 4.43l.3 1.5 1.53.11c1.56.1 2.78 1.41 2.78 2.96a3 3 0 0 1 -3 3m-11-5h2.55v3h2.9v-3h2.55l-4-4z"/></svg>

<?xml version="1.0" encoding="UTF-8"?><!DOCTYPE svg PUBLIC "-//W3C//DTD SVG 1.1//EN" "http://www.w3.org/Graphics/SVG/1.1/DTD/svg11.dtd"><svg xmlns="http://www.w3.org/2000/svg" xmlns:xlink="http://www.w3.org/1999/xlink" version="1.1" id="mdi-cloud-upload-outline" width="24" height="24" viewBox="0 0 24 24"><path d="M19.35,10.04C18.67,6.59 15.64,4 12,4C9.11,4 6.6,5.64 5.35,8.04C2.34,8.36 0,10.91 0,14A6,6 0 0,0 6,20H19A5,5 0 0,0 24,15C24,12.36 21.95,10.22 19.35,10.04M19,18H6A4,4 0 0,1 2,14C2,11.95 3.53,10.24 5.56,10.03L6.63,9.92L7.13,8.97C8.08,7.14 9.94,6 12,6C14.62,6 16.88,7.86 17.39,10.43L17.69,11.93L19.22,12.04C20.78,12.14 22,13.45 22,15A3,3 0 0,1 19,18M8,13H10.55V16H13.45V13H16L12,9L8,13Z" /></svg>
